src/lib/packages/icons/src/assets/line/shopping-bag.svg

<svg xmlns="http://www.w3.org/2000/svg" width="24" height="24" fill="none"><path fill="currentColor" d="M18.5 7.25h-2.25V6.5A4.254 4.254 0 0 0 12 2.25 4.254 4.254 0 0 0 7.75 6.5v.75H5.5A2.253 2.253 0 0 0 3.25 9.5V18c0 2.418 1.332 3.75 3.75 3.75h10c2.418 0 3.75-1.332 3.75-3.75V9.5c0-1.241-1.01-2.25-2.25-2.25ZM9.25 6.5A2.752 2.752 0 0 1 12 3.75a2.752 2.752 0 0 1 2.75 2.75v.75h-5.5V6.5Zm10 11.5c0 1.577-.673 2.25-2.25 2.25H7c-1.577 0-2.25-.673-2.25-2.25V9.5a.75.75 0 0 1 .75-.75h2.25V11a.75.75 0 0 0 1.5 0V8.75h5.5V11a.75.75 0 0 0 1.5 0V8.75h2.25a.75.75 0 0 1 .75.75V18Z"/></svg>

<svg width="24" height="24" viewBox="0 0 24 24" fill="none" xmlns="http://www.w3.org/2000/svg">
<path d="M18.5 7.25H16.25V6.5C16.25 4.156 14.344 2.25 12 2.25C9.656 2.25 7.75 4.156 7.75 6.5V7.25H5.5C4.26 7.25 3.25 8.259 3.25 9.5V18C3.25 20.418 4.582 21.75 7 21.75H17C19.418 21.75 20.75 20.418 20.75 18V9.5C20.75 8.259 19.74 7.25 18.5 7.25ZM9.25 6.5C9.25 4.983 10.483 3.75 12 3.75C13.517 3.75 14.75 4.983 14.75 6.5V7.25H9.25V6.5ZM19.25 18C19.25 19.577 18.577 20.25 17 20.25H7C5.423 20.25 4.75 19.577 4.75 18V9.5C4.75 9.086 5.087 8.75 5.5 8.75H7.75V11C7.75 11.414 8.086 11.75 8.5 11.75C8.914 11.75 9.25 11.414 9.25 11V8.75H14.75V11C14.75 11.414 15.086 11.75 15.5 11.75C15.914 11.75 16.25 11.414 16.25 11V8.75H18.5C18.913 8.75 19.25 9.086 19.25 9.5V18Z" fill="currentColor"/>
</svg>
